!!!COM:	Busnoys, Antoine
!!!CDT:	~1430///-1492/11/06
!!!OTL:	Ce n'est pas moy
!!!AGN:	Song; Chanson
!!!SCT:	Bus3011
!!!SCA:	Bus3011
!!!voices:	3
**kern	**kern	**kern
*staff3	*staff2	*staff1
*Ivox	*Ivox	*Ivox
*I"Contra	*I"Tenor	*I"Superius
*I'C	*I'T	*I'S
*>[A,B,B]	*>[A,B,B]	*>[A,B,B]
*>A	*>A	*>A
*clefGv2	*clefGv2	*clefG2
*k[b-]	*k[b-]	*k[b-]
*M2/1	*M2/1	*M2/1
*met(C|)	*met(C|)	*met(C|)
*MM288	*MM288	*MM288
=1-	=1-	=1-
!!LO:TX:Z=12:t=Virelai
1r	0r	0r
1F	.	.
=2	=2	=2
1.B-	0r	1r
.	.	1f
2c	.	.
=3	=3	=3
1d	1r	1b-
1A	1F	1cc
=4	=4	=4
1r	1B-	1.dd
1A	1c	.
.	.	4cc
.	.	4b-
=5	=5	=5
2D	1.d	1a
2F	.	.
2G	.	2b-
2E	2c	[2cc
=6	=6	=6
1G	2c	2cc]
.	1f	2a
2r	.	1g
2c	2e	.
=7	=7	=7
2.d	1f	1f
4e	.	.
1f	1B-	1r
=8	=8	=8
1B-	1r	1ff
2r	[1B-	1ff
[2d	.	.
=9	=9	=9
2d]	2B-]	1.ff
2c	2A	.
2.B-	1B-	.
.	.	2dd
8AL	.	.
8GJ	.	.
=10	=10	=10
0F	0c	4ee
.	.	4dd
.	.	4cc
.	.	4b-
.	.	2.a
.	.	4g
=11	=11	=11
1G	[0B-	0b-
[1E-	.	.
=12	=12	=12
2E-]	0B-_	1r
2C	.	.
1BB-	.	1f
=13	=13	=13
1r	0B-]	1f
1E-i	.	1g
=14	=14	=14
1F	1r	1.a
[1D	1F	.
.	.	4b-
.	.	4cc
=15	=15	=15
2D]	1F	1.dd
4C	.	.
4D	.	.
1E-i	1G	.
.	.	4cc
.	.	4dd
=16	=16	=16
0F	1.A	1.cc
.	4B-	2b-
.	4c	.
=17	=17	=17
1r	1.d	2a
.	.	2g
1D	.	[1a
.	4c	.
.	4d	.
=18	=18	=18
1E-i	1c	2a]
.	.	2g
1F	1A	[1f
=19	=19	=19
0C	0G	1f]
.	.	1e
=20	=20	=20
1c	1F	0f
1F	[1a	.
=21	=21	=21
1c	2a]	0r
.	2g	.
1A	[1f	.
=22	=22	=22
0G	2f]	0r
.	2e	.
.	2e	.
.	2d	.
=23	=23	=23
0F	0f	1r
.	.	1f
=24	=24	=24
1r	0B-	1.b-
1G	.	.
.	.	2a
=25	=25	=25
1G	1r	1b-
1A	1F	1cc
=26	=26	=26
1G	1.B-	1dd
[1d	.	1dd
.	2A	.
=27	=27	=27
2d]	1B-	0dd
2c	.	.
[1B-	1B-	.
=28	=28	=28
1B-]	0c	1.ee-
1A	.	.
.	.	4dd
.	.	4cc
=29	=29	=29
1G	0d	1b-
[1B-	.	[1ff
=30	=30	=30
1B-]	1r	1ff]
1c	1c	1ee-i
=31	=31	=31
0G	1d	1dd
.	1e	2cc
.	.	2b-
=32	=32	=32
1.d	1.f	0a
4c	2g	.
4B-	.	.
=33	=33	=33
1A	1a	1r
[1B-	1f	1dd
=34	=34	=34
1B-]	1.g	1dd
1c	.	1ee
.	4f	.
.	4e	.
=35	=35	=35
0d	1.d	1.ff
.	2B-	4ee
.	.	4dd
=36	=36	=36
1r	1c	1ee
[1G	[1B-	[1dd
=37	=37	=37
0G]	2B-]	2dd]
.	2A	2cc
.	1B-	[1b-
=38	=38	=38
1E	1.c	2b-]
.	.	4a
.	.	4g
[1F	.	2a
.	4d	4b-
.	4e	4cc
=39	=39	=39
1F]	1f	1dd
1c	[1e-i	2.ee-
.	.	4dd
=40	=40	=40
1A	1e-]	2.cc
.	.	4b-
1B-	1d	[1b-
=41	=41	=41
0F	0c	2b-]
.	.	2a
.	.	2a
.	.	2g
=42	=42	=42
0BB-l	0B-l	0b-l
=43||!|:	=43||!|:	=43||!|:
*>B	*>B	*>B
*clefGv2	*clefGv2	*clefG2
*k[b-]	*k[b-]	*k[b-]
*M2/1	*M2/1	*M2/1
*met(O2)	*met(O2)	*met(O2)
*MM384	*MM384	*MM384
!!section: De grant beaulte
!!!OMD: De grant beaulte
0B-	0r	0b-
=44.	=44.	=44.
1B-	0r	1dd
1c	.	1ee-i
=45.	=45.	=45.
[0d	0B-	0ff
=46	=46	=46
1d]	1d	1ff
2B-	1e-i	[1gg
2c	.	.
=47.	=47.	=47.
1d	1f	2gg]
.	.	2ff
1f	1f	[1ff
=48.	=48.	=48.
0c	1g	2ff]
.	.	4ee-i
.	.	4dd
.	1g	4ee-i
.	.	4dd
.	.	4cc
.	.	4b-
=49	=49	=49
1r	1f	1a
1F	1f	1a
=50.	=50.	=50.
1F	1f	1a
1F	1f	1a
=51.	=51.	=51.
1G	1d	1b-
1E	1e	1cc
=52	=52	=52
1D	1f	1dd
1D	1B-	1dd
=53.	=53.	=53.
0C	0A	1.ee-i
.	.	2ff
=54.	=54.	=54.
0G	1r	1.gg
.	[1B-	.
.	.	4ff
.	.	4ee-i
=55	=55	=55
1r	2B-]	1.dd
.	4A	.
.	4G	.
1G	1B-	.
.	.	4cc
.	.	4b-
=56.	=56.	=56.
1F	1d	1a
1G	1B-	[1b-
=57.	=57.	=57.
0F	0c	1b-]
.	.	1a
=58	=58	=58
0BB-l	0B-l	0b-l
==:|!	==:|!	==:|!
*-	*-	*-
!!!RDF**kern: l=long note in original notation
!!!RDF**kern: i=editorial accidental
!!!ENC:	Chris Gage 04-02-2015
!!!END:	2015/05/01/
!!!EED:	Jesse Rodin
!!!EEV:	2015/05/10/
!!!ONB:	Translated from MusicXML and edited on 2015/05/10/ by Craig Sapp
!!muse2ps: C^@{COM}^i2I150v95,95,150Q16
